!!! OTL: Berkowitz547
!!! Chapter: 1
!!! Section: V
!!! Page: 138
!!! Mode: 
!!! Encoder: DJB
**kern
*staff1
*I"Piano
=1-
*clefC3
*k[]
*C:
*M6/8
8D/L
8E/
8F#/J
4G#/
8F#/
=2
8r
8G#/L
8A/J
8Gn/L
8F/
8E-/J
=3
4E/
8D/
8r
8D-/L
8E-/J
=4
8F/L
8G/
8A/J
4B-/
8c\
=5
8r
8c#/L
8B/J
8c#/L
8B-/
8A-/J
=6
4A/
8G/
8A-/L
8B/
8A-/J
=7
4.G-/
8r
8G-/L
8F/J
=8
!!linebreak:original
8E-/L
8D-/
8C/J
4.Dn/
==
*-
